X:1
T:Ubekjendt Jeg Stander Her
T:Ubekjendt Jeg Stander Her
T:Nedtegnet med siffernoter av Ole Andersen Mærlie (1873)
L:1/8
Q:1/4=70
M:3/4
K:G
V:1 treble nm="Stemme" snm="St."
V:1
"Em" B>A G2 B2 |"Am" A>c"Em" B4 |"B7" AB"Em" G2 B2 |"B7" F2"Em" E4 |"Em" B>A G2 B2 | %5
w: U- be- kjend jeg|stan- der her|i en stum- pet|Trøi- e.|Maa med den, hvor|
"Am" A>c"Em" B4 |"B7" A>B"Em" G2"Am" A2 |"B7" F2"Em" G4 |"B7" F>G"Em" E2"B7" F2 |"Em" GA"B7" B4 | %10
w: styg den er|smukt mig la- de|nøi- e.|Dog af Pjat- ter|in- gen Ven.|
 A>B"Em" G3 B | G2"B7" F4 |"Em" B>A G2 B2 | A>c"B7" B4 | AB"Em" G2 B2 |"B7" F2"Em" E4 |] %16
w: Jeg den gjer- ne|slen- ger.|Naar en be- dre|du i- gjen.|Kon- ge paa mig|hen- ger.|

